humanity-icon-theme/Humanity/categories/48/applications-ruby.svg

<?xml version="1.0" encoding="UTF-8" standalone="no"?>
<!-- Created with Inkscape (http://www.inkscape.org/) -->

<svg
   xmlns:svg="http://www.w3.org/2000/svg"
   xmlns="http://www.w3.org/2000/svg"
   xmlns:xlink="http://www.w3.org/1999/xlink"
   version="1.1"
   width="48"
   height="48"
   id="svg2986">
  <defs
     id="defs2988">
    <linearGradient
       x1="91.248039"
       y1="20.596615"
       x2="105.09795"
       y2="35.66256"
       id="linearGradient2594"
       xlink:href="#linearGradient5142"
       gradientUnits="userSpaceOnUse"
       gradientTransform="matrix(1.224652,1.1208368,-1.1875805,1.2734929,-53.499356,-121.1924)" />
    <linearGradient
       id="linearGradient5142">
      <stop
         id="stop5144"
         style="stop-color:#fbb6b6;stop-opacity:1"
         offset="0" />
      <stop
         id="stop5146"
         style="stop-color:#fbb6b6;stop-opacity:0"
         offset="1" />
    </linearGradient>
    <linearGradient
       x1="93.695778"
       y1="41.634907"
       x2="88.839615"
       y2="26.961405"
       id="linearGradient2597"
       xlink:href="#linearGradient13645-430-425-17"
       gradientUnits="userSpaceOnUse"
       gradientTransform="matrix(0.81483205,0.73373718,-0.79310488,0.83690953,-31.521399,-75.058418)" />
    <linearGradient
       id="linearGradient13645-430-425-17">
      <stop
         id="stop4823"
         style="stop-color:#ab3227;stop-opacity:1"
         offset="0" />
      <stop
         id="stop4825"
         style="stop-color:#d54329;stop-opacity:1"
         offset="1" />
    </linearGradient>
    <linearGradient
       x1="91.25193"
       y1="-15.59241"
       x2="92.604187"
       y2="-20.792925"
       id="linearGradient2600"
       xlink:href="#linearGradient13503-393-636-660"
       gradientUnits="userSpaceOnUse"
       gradientTransform="matrix(1.605936,-0.01843676,0.01843676,1.605936,-139.03894,63.108369)" />
    <linearGradient
       id="linearGradient13503-393-636-660">
      <stop
         id="stop4829"
         style="stop-color:#f33838;stop-opacity:1"
         offset="0" />
      <stop
         id="stop4831"
         style="stop-color:#ffffff;stop-opacity:1"
         offset="1" />
    </linearGradient>
    <linearGradient
       x1="95.631493"
       y1="-19.533808"
       x2="90.217705"
       y2="-18.141273"
       id="linearGradient2603"
       xlink:href="#linearGradient13503-262-391-358"
       gradientUnits="userSpaceOnUse"
       gradientTransform="matrix(1.605936,-0.01843676,0.01843676,1.605936,-115.91595,40.061416)" />
    <linearGradient
       id="linearGradient13503-262-391-358">
      <stop
         id="stop4781"
         style="stop-color:#f33838;stop-opacity:1"
         offset="0" />
      <stop
         id="stop4783"
         style="stop-color:#ffffff;stop-opacity:1"
         offset="1" />
    </linearGradient>
    <linearGradient
       x1="97.28125"
       y1="27.1875"
       x2="94.15625"
       y2="24.4375"
       id="linearGradient2606"
       xlink:href="#linearGradient13503-167-938-817"
       gradientUnits="userSpaceOnUse"
       gradientTransform="matrix(1.605936,-0.01843676,0.01843676,1.605936,-124.37699,-24.102276)" />
    <linearGradient
       id="linearGradient13503-167-938-817">
      <stop
         id="stop4817"
         style="stop-color:#f33838;stop-opacity:1"
         offset="0" />
      <stop
         id="stop4819"
         style="stop-color:#ffffff;stop-opacity:1"
         offset="1" />
    </linearGradient>
    <linearGradient
       x1="92.25"
       y1="33.754673"
       x2="92.03125"
       y2="30.257521"
       id="linearGradient2609"
       xlink:href="#linearGradient13503-372-775-212"
       gradientUnits="userSpaceOnUse"
       gradientTransform="matrix(1.605936,-0.01843676,0.01843676,1.605936,-124.37699,-24.102276)" />
    <linearGradient
       id="linearGradient13503-372-775-212">
      <stop
         id="stop4811"
         style="stop-color:#f33838;stop-opacity:1"
         offset="0" />
      <stop
         id="stop4813"
         style="stop-color:#ffffff;stop-opacity:1"
         offset="1" />
    </linearGradient>
    <linearGradient
       x1="83.625"
       y1="38.322552"
       x2="83.625"
       y2="35.208294"
       id="linearGradient2612"
       xlink:href="#linearGradient13503-332-487-296"
       gradientUnits="userSpaceOnUse"
       gradientTransform="matrix(1.605936,-0.01843676,0.01843676,1.605936,-124.37699,-24.102276)" />
    <linearGradient
       id="linearGradient13503-332-487-296">
      <stop
         id="stop4805"
         style="stop-color:#f33838;stop-opacity:1"
         offset="0" />
      <stop
         id="stop4807"
         style="stop-color:#ffffff;stop-opacity:1"
         offset="1" />
    </linearGradient>
    <radialGradient
       cx="93.541039"
       cy="31.684702"
       r="6.8495793"
       fx="93.541039"
       fy="31.684702"
       id="radialGradient2615"
       xlink:href="#linearGradient5150-349"
       gradientUnits="userSpaceOnUse"
       gradientTransform="matrix(1.1814793,1.0553091,-2.0392872,2.1978443,-22.384209,-144.33091)" />
    <linearGradient
       id="linearGradient5150-349">
      <stop
         id="stop5371"
         style="stop-color:#d44228;stop-opacity:1"
         offset="0" />
      <stop
         id="stop5373"
         style="stop-color:#bc3c31;stop-opacity:1"
         offset="1" />
    </linearGradient>
    <linearGradient
       x1="96.71505"
       y1="34.202248"
       x2="99.66996"
       y2="34.205513"
       id="linearGradient2617"
       xlink:href="#linearGradient3626-304-761-759-275"
       gradientUnits="userSpaceOnUse"
       gradientTransform="matrix(1.323283,1.1999966,-1.2709454,1.3501793,-59.993349,-131.0071)" />
    <linearGradient
       id="linearGradient3626-304-761-759-275">
      <stop
         id="stop5377"
         style="stop-color:#9c3f2f;stop-opacity:1"
         offset="0" />
      <stop
         id="stop5379"
         style="stop-color:#9a3422;stop-opacity:0"
         offset="1" />
    </linearGradient>
    <linearGradient
       x1="27.041409"
       y1="26.330421"
       x2="35"
       y2="33"
       id="linearGradient2621"
       xlink:href="#linearGradient5134-621"
       gradientUnits="userSpaceOnUse"
       gradientTransform="matrix(1.4769016,0.03993633,-0.03993594,1.4769159,-9.8705333,-8.6952327)" />
    <linearGradient
       id="linearGradient5134-621">
      <stop
         id="stop5857"
         style="stop-color:#d63233;stop-opacity:1"
         offset="0" />
      <stop
         id="stop5859"
         style="stop-color:#fd9283;stop-opacity:1"
         offset="1" />
    </linearGradient>
    <linearGradient
       id="linearGradient4114">
      <stop
         id="stop4116"
         style="stop-color:#000000;stop-opacity:1"
         offset="0" />
      <stop
         id="stop4118"
         style="stop-color:#000000;stop-opacity:0"
         offset="1" />
    </linearGradient>
    <radialGradient
       cx="15.115514"
       cy="63.965389"
       r="12.289036"
       fx="15.115514"
       fy="63.965389"
       id="radialGradient2984"
       xlink:href="#linearGradient4114"
       gradientUnits="userSpaceOnUse"
       gradientTransform="matrix(1.7112992,0,0,0.7871989,-0.31236174,-14.486431)" />
  </defs>
  <g
     id="layer1">
    <path
       d="m 46.585025,35.867072 c 0.0024,5.343509 -9.413914,9.675845 -21.030218,9.675845 -11.616305,0 -21.0325294,-4.332336 -21.0302187,-9.675845 -0.00244,-5.343511 9.4139137,-9.675844 21.0302187,-9.675844 11.616304,0 21.03253,4.332333 21.030218,9.675844 z"
       id="path4112"
       style="opacity:0.42918456;fill:url(#radialGradient2984);fill-opacity:1;stroke:none;display:inline" />
    <path
       d="M 40.674002,14.272419 40.503134,41.440762 13.401998,41.500002 40.674002,14.272425 z"
       id="path16493"
       style="fill:url(#linearGradient2621);fill-opacity:1;fill-rule:evenodd;stroke:#9c3f2f;stroke-width:0.99999535;stroke-linecap:butt;stroke-linejoin:round;stroke-miterlimit:4;stroke-opacity:1;stroke-dasharray:none" />
    <path
       d="m 40.303029,41.788117 -3.739895,-16.742751 -6.903171,9.246705 10.643066,7.496046 z m 0,0 -17.029903,-3.770779 -5.123831,3.171733 22.153734,0.599046 z"
       id="path16495"
       style="fill:#af3a28;fill-opacity:1;fill-rule:evenodd;stroke:none" />
    <path
       d="M 32.070978,31.777618 C 23.90738,40.448852 13.463606,44.01061 8.7374414,39.735326 4.0112743,35.460043 6.790301,24.964767 14.946361,16.286716 23.102423,7.6086638 33.550626,4.0301569 38.289805,8.2915934 43.028985,12.553034 40.266626,23.042603 32.118128,31.727451"
       id="path16499"
       style="fill:url(#radialGradient2615);fill-opacity:1;fill-rule:nonzero;stroke:url(#linearGradient2617);stroke-width:1;stroke-linecap:round;stroke-linejoin:round;stroke-miterlimit:4;stroke-opacity:1;stroke-dasharray:none;stroke-dashoffset:0" />
    <path
       d="M 12.991915,40.875417 17.553794,27.271178 8.7257565,27.77406 12.991915,40.875417 z"
       id="path16503"
       style="opacity:0.80257509;fill:url(#linearGradient2612);fill-opacity:1;fill-rule:evenodd;stroke:none" />
    <path
       d="M 30.553505,31.639224 26.270062,17.032302 17.553794,27.271178 30.553505,31.639224 z"
       id="path16505"
       style="opacity:0.80257509;fill:url(#linearGradient2609);fill-opacity:1;fill-rule:evenodd;stroke:none" />
    <path
       d="M 26.48821,9.8021356 38.51532,16.891724 26.169689,17.033455 26.48821,9.8021346 z"
       id="path16507"
       style="opacity:0.80257509;fill:url(#linearGradient2606);fill-opacity:1;fill-rule:evenodd;stroke:none" />
    <path
       d="M 35.280084,7.0237748 29.936663,11.486026 25.508,9.017537 35.280084,7.0237748 z"
       id="path16509"
       style="opacity:0.80257509;fill:url(#linearGradient2603);fill-opacity:1;fill-rule:evenodd;stroke:none" />
    <path
       d="M 10.535982,30.402993 6.812,34.686563 8.923285,25.902325 10.535982,30.402993 z"
       id="path16511"
       style="opacity:0.80257509;fill:url(#linearGradient2600);fill-opacity:1;fill-rule:evenodd;stroke:none" />
    <path
       d="m 23.789841,23.893627 c -5.093809,5.375323 -11.111893,8.034658 -13.445639,5.941497 -2.3337498,-2.093155 -0.100475,-8.147103 4.989622,-13.525764 5.090085,-5.378662 11.11173,-8.0476548 13.453601,-5.963078 2.341869,2.084576 0.118195,8.134264 -4.968161,13.516252"
       id="path16513"
       style="fill:url(#linearGradient2597);fill-opacity:1;fill-rule:nonzero;stroke:#e3b9be;stroke-width:1;stroke-linecap:round;stroke-linejoin:round;stroke-miterlimit:4;stroke-opacity:1;stroke-dasharray:none;stroke-dashoffset:0" />
    <path
       d="M 31.342847,31.246249 C 23.714728,39.424989 13.990198,42.816261 9.6162509,38.823056 5.2422996,34.829849 7.8732993,24.962524 15.494442,16.777418 23.115586,8.5923079 32.844312,5.1852946 37.23042,9.1654392 41.616531,13.145586 39.001052,23.007476 31.386907,31.198932"
       id="path3614"
       style="opacity:0.4;fill:none;stroke:url(#linearGradient2594);stroke-width:1.00408936;stroke-linecap:round;stroke-linejoin:round;stroke-miterlimit:4;stroke-opacity:1;stroke-dasharray:none;stroke-dashoffset:0" />
  </g>
</svg>

<?xml version="1.0" encoding="UTF-8" standalone="no"?>
<!-- Created with Inkscape (http://www.inkscape.org/) -->
<svg id="svg2986" xmlns="http://www.w3.org/2000/svg" height="48" width="48" version="1.1" xmlns:xlink="http://www.w3.org/1999/xlink">
 <defs id="defs2988">
  <linearGradient id="linearGradient2594" y2="35.663" gradientUnits="userSpaceOnUse" x2="105.1" gradientTransform="matrix(1.2247 1.1208 -1.1876 1.2735 -53.499 -121.19)" y1="20.597" x1="91.248">
   <stop id="stop5144" style="stop-color:#fbb6b6" offset="0"/>
   <stop id="stop5146" style="stop-color:#fbb6b6;stop-opacity:0" offset="1"/>
  </linearGradient>
  <linearGradient id="linearGradient2597" y2="26.961" gradientUnits="userSpaceOnUse" x2="88.84" gradientTransform="matrix(.81483 .73374 -.79310 .83691 -31.521 -75.058)" y1="41.635" x1="93.696">
   <stop id="stop4823" style="stop-color:#ab3227" offset="0"/>
   <stop id="stop4825" style="stop-color:#d54329" offset="1"/>
  </linearGradient>
  <linearGradient id="linearGradient2600" y2="-20.793" gradientUnits="userSpaceOnUse" x2="92.604" gradientTransform="matrix(1.6059 -.018437 .018437 1.6059 -139.04 63.108)" y1="-15.592" x1="91.252">
   <stop id="stop4829" style="stop-color:#f33838" offset="0"/>
   <stop id="stop4831" style="stop-color:#fff" offset="1"/>
  </linearGradient>
  <linearGradient id="linearGradient2603" y2="-18.141" gradientUnits="userSpaceOnUse" x2="90.218" gradientTransform="matrix(1.6059 -.018437 .018437 1.6059 -115.92 40.061)" y1="-19.534" x1="95.631">
   <stop id="stop4781" style="stop-color:#f33838" offset="0"/>
   <stop id="stop4783" style="stop-color:#fff" offset="1"/>
  </linearGradient>
  <linearGradient id="linearGradient2606" y2="24.438" gradientUnits="userSpaceOnUse" x2="94.156" gradientTransform="matrix(1.6059 -.018437 .018437 1.6059 -124.38 -24.102)" y1="27.188" x1="97.281">
   <stop id="stop4817" style="stop-color:#f33838" offset="0"/>
   <stop id="stop4819" style="stop-color:#fff" offset="1"/>
  </linearGradient>
  <linearGradient id="linearGradient2609" y2="30.258" gradientUnits="userSpaceOnUse" x2="92.031" gradientTransform="matrix(1.6059 -.018437 .018437 1.6059 -124.38 -24.102)" y1="33.755" x1="92.25">
   <stop id="stop4811" style="stop-color:#f33838" offset="0"/>
   <stop id="stop4813" style="stop-color:#fff" offset="1"/>
  </linearGradient>
  <linearGradient id="linearGradient2612" y2="35.208" gradientUnits="userSpaceOnUse" x2="83.625" gradientTransform="matrix(1.6059 -.018437 .018437 1.6059 -124.38 -24.102)" y1="38.323" x1="83.625">
   <stop id="stop4805" style="stop-color:#f33838" offset="0"/>
   <stop id="stop4807" style="stop-color:#fff" offset="1"/>
  </linearGradient>
  <radialGradient id="radialGradient2615" gradientUnits="userSpaceOnUse" cy="31.685" cx="93.541" gradientTransform="matrix(1.1815 1.0553 -2.0393 2.1978 -22.384 -144.33)" r="6.8496">
   <stop id="stop5371" style="stop-color:#d44228" offset="0"/>
   <stop id="stop5373" style="stop-color:#bc3c31" offset="1"/>
  </radialGradient>
  <linearGradient id="linearGradient2617" y2="34.206" gradientUnits="userSpaceOnUse" x2="99.67" gradientTransform="matrix(1.3233 1.2 -1.2709 1.3502 -59.993 -131.01)" y1="34.202" x1="96.715">
   <stop id="stop5377" style="stop-color:#9c3f2f" offset="0"/>
   <stop id="stop5379" style="stop-color:#9a3422;stop-opacity:0" offset="1"/>
  </linearGradient>
  <linearGradient id="linearGradient2621" y2="33" gradientUnits="userSpaceOnUse" x2="35" gradientTransform="matrix(1.4769 .039936 -.039936 1.4769 -9.8705 -8.6952)" y1="26.33" x1="27.041">
   <stop id="stop5857" style="stop-color:#d63233" offset="0"/>
   <stop id="stop5859" style="stop-color:#fd9283" offset="1"/>
  </linearGradient>
  <radialGradient id="radialGradient2984" gradientUnits="userSpaceOnUse" cy="63.965" cx="15.116" gradientTransform="matrix(1.7113 0 0 .78720 -.31236 -14.486)" r="12.289">
   <stop id="stop4116" offset="0"/>
   <stop id="stop4118" style="stop-opacity:0" offset="1"/>
  </radialGradient>
 </defs>
 <g id="layer1">
  <path id="path4112" style="opacity:.42918;fill:url(#radialGradient2984)" d="m46.585 35.867c0.0024 5.3435-9.4139 9.6758-21.03 9.6758s-21.033-4.3323-21.03-9.6758c-0.00244-5.3435 9.4139-9.6758 21.03-9.6758s21.033 4.3323 21.03 9.6758z"/>
  <path id="path16493" style="stroke-linejoin:round;fill-rule:evenodd;stroke:#9c3f2f;fill:url(#linearGradient2621)" d="m40.674 14.272-0.171 27.169-27.101 0.059 27.272-27.228z"/>
  <path id="path16495" style="fill:#af3a28;fill-rule:evenodd" d="m40.303 41.788-3.7399-16.743-6.9032 9.2467 10.643 7.496zl-17.03-3.7708-5.1238 3.1717 22.154 0.59905z"/>
  <path id="path16499" style="stroke-linejoin:round;stroke:url(#linearGradient2617);stroke-linecap:round;fill:url(#radialGradient2615)" d="m32.071 31.778c-8.164 8.671-18.607 12.233-23.334 7.957-4.7257-4.275-1.9467-14.77 6.209-23.448 8.156-8.6783 18.605-12.257 23.344-7.9954 4.739 4.2614 1.977 14.751-6.172 23.435"/>
  <path id="path16503" style="opacity:.80258;fill:url(#linearGradient2612);fill-rule:evenodd" d="m12.992 40.875 4.562-13.604-8.8282 0.503 4.2662 13.101z"/>
  <path id="path16505" style="opacity:.80258;fill:url(#linearGradient2609);fill-rule:evenodd" d="m30.554 31.639-4.284-14.607-8.716 10.239 13 4.368z"/>
  <path id="path16507" style="opacity:.80258;fill:url(#linearGradient2606);fill-rule:evenodd" d="m26.488 9.8021 12.027 7.0899-12.345 0.141 0.318-7.2309z"/>
  <path id="path16509" style="opacity:.80258;fill:url(#linearGradient2603);fill-rule:evenodd" d="m35.28 7.0238-5.343 4.4622-4.429-2.4685 9.772-1.9937z"/>
  <path id="path16511" style="opacity:.80258;fill:url(#linearGradient2600);fill-rule:evenodd" d="m10.536 30.403-3.724 4.284 2.1113-8.785 1.6127 4.501z"/>
  <path id="path16513" style="stroke-linejoin:round;stroke:#e3b9be;stroke-linecap:round;fill:url(#linearGradient2597)" d="m23.79 23.894c-5.0938 5.3753-11.112 8.0347-13.446 5.9415-2.3337-2.0932-0.10048-8.1471 4.9896-13.526 5.0901-5.3787 11.112-8.0477 13.454-5.9631 2.3419 2.0846 0.1182 8.1343-4.9682 13.516"/>
  <path id="path3614" style="opacity:.4;stroke-linejoin:round;stroke:url(#linearGradient2594);stroke-linecap:round;stroke-width:1.0041;fill:none" d="m31.343 31.246c-7.628 8.179-17.353 11.57-21.727 7.577-4.3737-3.993-1.7427-13.86 5.878-22.046 7.622-8.1847 17.35-11.592 21.736-7.6116 4.387 3.9806 1.771 13.842-5.843 22.034"/>
 </g>
</svg>
